!!!COM: Bach, Johann Sebastian
!!!OTL: Nun freut euch, lieben Christen, g'mein
!!!ONM: No. 183
!!!OCL: Erk
!!!YOE: Riemenschneider, Albert
!!!OPR: 371 Harmonized Chorales and 69 Chorale Melodies with Figured Bass
!!!OPT: Bach Chorale Harmonizations
**kern	**kern	**kern	**kern
! bass	! tenor	! alto	! soprano
*M4/4	*M4/4	*M4/4	*M4/4
*G:	*G:	*G:	*G:
8GG	8B	4d	4g
8AA	8A	.	.
=1	=1	=1	=1
8BB	4G	4d	4g
8C	.	.	.
8D	4F#	4a	4d
8C	.	.	.
4BB	[4G	4d	4g
4AA	8G]	4a	4cc
.	8F#	.	.
=2	=2	=2	=2
8GG	[4G	4d	4b
8BB	.	.	.
4D	8G]	8.d	4a
.	8F#	.	.
.	.	16c	.
4GG;	4D;	4B;	4g;
4E	4G	8B	4g
.	.	8c#	.
=3	=3	=3	=3
4D	8F#	8d	8a
.	8G#	8fn	8b
4AA	4A	8e	4cc
.	.	8f#	.
8BB	8D	4g	4b
8C	8E	.	.
4D	4F#	8d	4a
.	.	16A	.
.	.	16B	.
=4	=4	=4	=4
8C	4G	2c	4e
8BB	.	.	.
4AA	4A	.	4f#
4GG;	4D;	4B;	4g;
!! Repeat from the beginning.
8GG	8B	4d	4g
8AA	8A	.	.
=1	=1	=1	=1
8BB	4G	4d	4g
8C	.	.	.
8D	4F#	4a	4d
8C	.	.	.
4BB	[4G	4d	4g
4AA	8G]	4a	4cc
.	8F#	.	.
=2	=2	=2	=2
8GG	[4G	4d	4b
8BB	.	.	.
4D	8G]	8.d	4a
.	8F#	.	.
.	.	16c	.
4GG;	4D;	4B;	4g;
4E	4G	8B	4g
.	.	8c#	.
=3	=3	=3	=3
4D	8F#	8d	8a
.	8G#	8fn	8b
4AA	4A	8e	4cc
.	.	8f#	.
8BB	8D	4g	4b
8C	8E	.	.
4D	4F#	8d	4a
.	.	16A	.
.	.	16B	.
=4	=4	=4	=4
8C	4G	2c	4e
8BB	.	.	.
4AA	4A	.	4f#
4GG;	4D;	4B;	4g;
!! Continuing.
8G	4B	4d	4g
8F#	.	.	.
=5	=5	=5	=5
8E	8e	8g	4cc
8F#	8d	[8a	.
[4G	4d	8a]	4b
.	.	16g	.
.	.	16f#	.
8G]	4c#	4e	4a
16A	.	.	.
16G	.	.	.
8F#	4d	8a	4dd
8B	.	8f#	.
=6	=6	=6	=6
4G	8B	8e	4dd
.	8E	[8g	.
8A	4A	8g]	4cc#
8AA	.	16f#	.
.	.	16e	.
4D;	4A;	4f#;	4dd;
4BB	[4d	4g	4dd
=7	=7	=7	=7
8C	8d]	4g	4ee
8D	16c	.	.
.	16B	.	.
4E	8c	4g	4cc
.	8e	.	.
8F#	8d	8a	4.dd
8D	8c	8f#	.
8E	8B	8g	.
8F#	8A	[8a	8cc
=8	=8	=8	=8
4G	16B	8a]	4b
.	16c	.	.
.	4d	[8g	.
4D	.	8g]	4a
.	8c	8f#	.
4E;	4B;	4e;	4g;
4E	4G	[4e	4b
=9	=9	=9	=9
4F#	4A	8e]	4a
.	.	16d	.
.	.	16c	.
8G	8G	4B	4d
8f#	8A	.	.
4E	4B	8e	4g
.	.	8d	.
4AA	4A	8e	4cc
.	.	8f#	.
=10	=10	=10	=10
8BB	[4d	[4g	4b
8C	.	.	.
4D	8.d]	8g]	4a
.	.	8f#	.
.	16c	.	.
4GG;	4B;	4d;	4g;
==	==	==	==
*-	*-	*-	*-
!!!CDT: 1685/3//-1750/7/28
!!!OCY: Deutschland
!!!AGN: chorale
!!!AST: Baroque
!!!AIN: vox
!!!YOY: 1941
!!!PPP: New York; London
!!!PPR: G. Schirmer
!!!ENC: David Huron
!!!EED: David Huron
!!!YEN: United States of America
!!!YER: 1992
!!!YEC: Copyright 1992 David Huron
!!!YEM: Rights to all derivative electronic formats reserved.
!!!YER: March 20, 1996
!!!AMT: simple quadruple
!!!EEV: 1.1
